assets_src/svg/book_search_24_filled.svg

<svg xmlns="http://www.w3.org/2000/svg" width="24" height="24" viewBox="0 0 24 24"><path fill-rule="evenodd" d="M17.5 2L6 2C4.62 2 3.5 3.12 3.5 4.5L3.5 18.749333C3.5 19.161333 3.838667 19.5 4.250667 19.5L18.5 19.5C18.5 20.051999 18.052 20.499999 17.5 20.499999L4.250667 20.499999C3.250667 20.499999 3.250667 21.999999 4.250667 21.999999L17.5 21.999999C18.88 21.999999 20 20.879999 20 19.5L20 4.5C20 3.12 18.88 2 17.5 2ZM10.688 5.172C8.188 5.172 6.401333 7.584 7.125333 9.978666C7.854666 12.369333 10.682666 13.38 12.76 11.989333L15.234666 14.464C15.516 14.749333 15.973333 14.749333 16.26 14.464C16.541333 14.182666 16.541333 13.724 16.26 13.442666L13.781333 10.969333C15.437333 8.494666 13.666666 5.172 10.688 5.172ZM10.688 6.62C13.724 6.62 13.724 11.172 10.688 11.172C7.650666 11.172 7.650666 6.62 10.688 6.62Z"/></svg>

<svg xmlns="http://www.w3.org/2000/svg" width="24" height="24" fill="none" viewBox="0 0 24 24"><path fill="#212121" fill-rule="evenodd" clip-rule="evenodd" d="M17.5 2H6A2.5 2.5 0 0 0 3.5 4.5v14.25c0 .414.336.75.75.75H18.5a1 1 0 0 1-1 1H4.25a.75.75 0 0 0 0 1.5H17.5a2.5 2.5 0 0 0 2.5-2.5V4.5A2.5 2.5 0 0 0 17.5 2zM10.688 5.171a3.724 3.724 0 1 0 2.071 6.82l2.476 2.475a.724.724 0 1 0 1.024-1.024l-2.476-2.475a3.724 3.724 0 0 0-3.095-5.796zm0 1.448a2.276 2.276 0 1 1 0 4.553 2.276 2.276 0 0 1 0-4.553z"/></svg>
